src/icons/outline/symbols/strategies.svg

<svg width="24" height="24" viewBox="0 0 24 24" fill="none" xmlns="http://www.w3.org/2000/svg">
<g clip-path="url(#clip0_4787_687)">
<path fill-rule="evenodd" clip-rule="evenodd" d="M10.9326 1.62367C11.2938 1.01848 12.046 0.823051 12.6318 1.17445C12.8074 1.27207 12.9542 1.42856 13.0615 1.60414L15.2089 5.42054C15.3748 5.69375 15.4139 6.02532 15.3359 6.3473C15.2578 6.66942 15.0526 6.93332 14.7695 7.10902C14.5743 7.22609 14.3592 7.2848 14.1445 7.2848V7.27504H12.7392L12.7382 15.9694C13.7006 14.6251 15.1409 13.6012 17.0703 12.8825L16.4199 11.3161C16.2929 11.0135 16.2929 10.6714 16.4199 10.3688C16.5468 10.0664 16.7912 9.82277 17.0937 9.69593C17.2987 9.61788 17.5235 9.58853 17.7382 9.61781L21.9365 10.2028C22.2586 10.2516 22.5518 10.4178 22.747 10.6813C22.9423 10.9448 23.0302 11.2674 22.9912 11.5993C22.9619 11.8042 22.8837 12.0095 22.747 12.1754L20.1982 15.5524C19.9932 15.8159 19.7098 15.9919 19.3779 16.0309C19.3194 16.0309 19.2606 16.0407 19.2021 16.0407L19.2119 16.0602C18.9484 16.0601 18.6844 15.9722 18.4697 15.8063C18.2941 15.6794 18.1581 15.4936 18.0703 15.2887L17.6318 14.235C14.2579 15.4738 12.7382 17.6085 12.7382 21.0875V22.2682C12.7382 22.6682 12.4069 23.0004 12.0068 23.0006C11.6065 23.0006 11.2744 22.6684 11.2744 22.2682V21.0875C11.2744 17.6078 9.75405 15.4655 6.37886 14.234L5.93355 15.3082C5.84567 15.5132 5.70891 15.6892 5.53316 15.8161C5.31837 15.982 5.05456 16.07 4.79097 16.07V16.0602C4.73242 16.0602 4.67373 16.0602 4.61519 16.0504C4.29302 16.0016 3.99989 15.8354 3.79488 15.5719L1.24702 12.195C1.12014 12.0291 1.03221 11.8237 1.01265 11.6188C0.915012 10.9453 1.39364 10.3199 2.06734 10.2321L6.26558 9.64711C6.48034 9.61785 6.70511 9.64716 6.91011 9.72523C7.21257 9.85213 7.45704 10.0859 7.58394 10.3883C7.71085 10.6909 7.71082 11.033 7.58394 11.3356L6.94038 12.8825C8.87321 13.6041 10.3127 14.6275 11.2744 15.9694V7.27504H9.85835C9.17495 7.27496 8.61812 6.71803 8.61812 6.0348C8.6182 5.81059 8.67695 5.59604 8.7939 5.41078L10.9326 1.62367ZM19.2802 14.3707L21.3603 11.6188L17.9433 11.1403L17.9335 11.1305L19.2802 14.3707ZM2.66304 11.5993L2.65327 11.609L4.73238 14.361L6.08003 11.1207L2.66304 11.5993ZM10.249 5.81117H13.7539L11.997 2.70668L10.249 5.81117Z" fill="#3C3B44"/>
</g>
<defs>
<clipPath id="clip0_4787_687">
<rect width="24" height="24" fill="white"/>
</clipPath>
</defs>
</svg>

<svg xmlns="http://www.w3.org/2000/svg" width="24" height="24" fill="none" viewBox="0 0 24 24"><g clip-path="url(#a)"><path fill="currentColor" fill-rule="evenodd" d="M10.933 1.624a1.23 1.23 0 0 1 2.129-.02l2.147 3.817c.166.273.205.604.127.926a1.24 1.24 0 0 1-1.191.938v-.01h-1.406v8.694c.962-1.344 2.402-2.368 4.331-3.086l-.65-1.567a1.23 1.23 0 0 1 0-.947c.127-.303.371-.546.674-.673.205-.078.43-.107.644-.078l4.198.585c.323.049.616.215.811.478.195.264.283.586.244.918-.03.205-.107.41-.244.576l-2.549 3.377c-.205.264-.488.44-.82.479-.059 0-.117.01-.176.01l.01.02a1.22 1.22 0 0 1-.742-.255 1.24 1.24 0 0 1-.4-.517l-.438-1.054c-3.374 1.239-4.894 3.374-4.894 6.852v1.181c0 .4-.331.732-.731.733a.74.74 0 0 1-.733-.733v-1.18c0-3.48-1.52-5.623-4.895-6.854l-.445 1.074a1.2 1.2 0 0 1-.4.508 1.22 1.22 0 0 1-.743.254v-.01c-.059 0-.117 0-.176-.01a1.27 1.27 0 0 1-.82-.478l-2.548-3.377a1.15 1.15 0 0 1-.234-.576 1.226 1.226 0 0 1 1.054-1.387l4.199-.585c.214-.03.44 0 .644.078.303.127.547.36.674.663s.127.645 0 .948l-.644 1.547c1.933.721 3.373 1.745 4.334 3.086V7.275H9.858c-.683 0-1.24-.557-1.24-1.24 0-.224.059-.439.176-.624zM19.28 14.37l2.08-2.752-3.417-.479-.01-.01zM2.663 11.599l-.01.01 2.08 2.752 1.347-3.24zm7.586-5.788h3.505l-1.757-3.104z" clip-rule="evenodd"/></g><defs><clipPath id="a"><path fill="currentColor" d="M0 0h24v24H0z"/></clipPath></defs></svg>
